packages/ui-icons/svg/Line/unlock.svg

<svg viewBox="0 0 1920 1920" version="1.1" xmlns="http://www.w3.org/2000/svg">
    <path d="M1581.29412,1694.11765 C1581.29412,1756.34824 1530.58353,1807.05882 1468.35294,1807.05882 L451.882353,1807.05882 C389.651765,1807.05882 338.941176,1756.34824 338.941176,1694.11765 L338.941176,1016.47059 L1581.29412,1016.47059 L1581.29412,1694.11765 Z M564.823529,903.529412 L564.823529,508.235294 C564.823529,290.258824 742.141176,112.941176 960.117647,112.941176 C1178.09412,112.941176 1355.41176,290.258824 1355.41176,508.235294 L1468.35294,508.235294 C1468.35294,228.028235 1240.32471,0 960.117647,0 C679.910588,0 451.882353,228.028235 451.882353,508.235294 L451.882353,903.529412 L226,903.529412 L226,1694.11765 C226,1818.69176 327.308235,1920 451.882353,1920 L1468.35294,1920 C1592.92706,1920 1694.23529,1818.69176 1694.23529,1694.11765 L1694.23529,903.529412 L564.823529,903.529412 Z M903.647059,1581.17647 L1016.58824,1581.17647 L1016.58824,1242.35294 L903.647059,1242.35294 L903.647059,1581.17647 Z" stroke="none" stroke-width="1" fill-rule="evenodd"/>
</svg>

<svg viewBox="0 0 1920 1920" version="1.1" xmlns="http://www.w3.org/2000/svg">
    <path d="M1581.294 1694.118c0 62.23-50.71 112.94-112.941 112.94H451.883c-62.231 0-112.942-50.71-112.942-112.94V1016.47h1242.353v677.647zM564.824 903.529V508.235c0-217.976 177.317-395.294 395.294-395.294 217.976 0 395.294 177.318 395.294 395.294h112.94C1468.353 228.028 1240.326 0 960.119 0S451.882 228.028 451.882 508.235V903.53H226v790.589C226 1818.692 327.308 1920 451.882 1920h1016.47c124.575 0 225.883-101.308 225.883-225.882V903.529H564.824zm338.823 677.647h112.941v-338.823h-112.94v338.823z" stroke="none" stroke-width="1" fill-rule="evenodd"/>
</svg>
